!!!COM: Bach, Johann Sebastian
!!!CDT: 1685/3//-1750/7/28/
!!!OTL@@DE: Es ist das Heil uns kommen her
!!!AGN: 4-Part Chorale
!!!SCT: BH 290
!!!SCT: BWV 9
**harm	**root	**kern	**kern	**kern	**kern
!	!	!bass	!tenor	!alto	!soprno
*	*Iorgan	*Iorgan	*Iorgan	*Iorgan	*Iorgan
*M4/4	*M4/4	*M4/4	*M4/4	*M4/4	*M4/4
*met(c)	*met(c)	*met(c)	*met(c)	*met(c)	*met(c)
*MM60	*MM60	*MM60	*MM60	*MM60	*MM60
*k[f#c#g#d#a#e#]	*k[f#c#g#d#a#e#]	*k[f#c#g#d#a#e#]	*k[f#c#g#d#a#e#]	*k[f#c#g#d#a#e#]	*k[f#c#g#d#a#e#]
*F#:	*F#:	*F#:	*F#:	*F#:	*F#:
*>[A,A,B]	*>[A,A,B]	*>[A,A,B]	*>[A,A,B]	*>[A,A,B]	*>[A,A,B]
*>A	*>A	*>A	*>A	*>A	*>A
I	4EE	4F#	4f#	4a#	4cc#
=1	=1	=1	=1	=1	=1
I	4EE	4F#	4c#	8g#	4cc#
.	.	.	.	8a#	.
V7b	4BB	4E#	4g#	4b	4cc#
I	8EE	4F#	4f#	8a#	8cc#
IVc	8AA	.	.	8b	8dd#
V7b/IV	4EE	4AA#	4f#	4cc#	4ee
=2	=2	=2	=2	=2	=2
IV	8AA	4BB	8f#	8cc#	4dd#
iib	8FF#	.	8g#	8b	.
-IIIb	8GG	8C#	4a	8e	4cc#
viio7/-VII	8CC#	8D#	.	8f#	.
-VII;	4DD;	4E;	4e;	4g#;	4b;
Vb	4BB	4E#	4c#	4g#	8cc#
.	.	.	.	.	8b
=3	=3	=3	=3	=3	=3
I	4EE	4.F#	8c#	4f#	8a#
.	.	.	8B	.	8g#
I	4EE	.	4A#	4c#	8f#
.	.	8E#	.	.	8g#
vi	4CC#	8D#	4d#	4f#	4a#
.	.	8E#	.	.	.
V7d/V	4FF#	8F#	4G#	4d#	4b#
.	.	8G#	.	.	.
=4	=4	=4	=4	=4	=4
Vb	8BB	8E#	8G#	4.g#	4cc#
V	8BB	8C#	8c#	.	.
V/V	4FF#	4G#	4B#	.	4dd#
.	.	.	.	8f#	.
V;	4BB;	4C#;	4G#;	4e#;	4cc#;
=:|!	=:|!	=:|!	=:|!	=:|!	=:|!
*>B	*>B	*>B	*>B	*>B	*>B
I	4EE	8F#	4A#	8f#	4cc#
.	.	8E#	.	8g#	.
=5	=5	=5	=5	=5	=5
vi	4CC#	4D#	4d#	8a#	4ff#
.	.	.	.	8b#	.
V	4BB	4C#	8e#	4cc#	4ee#
.	.	.	8f#	.	.
V/V	4FF#	8G#	4g#	8b#	4dd#
.	.	8A#	.	8a#	.
V7d	4BB	8B	4c#	4g#	4ee#
.	.	8G#	.	.	.
!!linebreak: 2
=6	=6	=6	=6	=6	=6
Ib	8EE	8A#	4c#	8cc#	8ff#
I7	8EE	8F#	.	8a#	8ee#
V/V	4FF#	4G#	8g#	4b#	4dd#
.	.	.	8f#	.	.
V;	4BB;	4C#;	4e#;	4g#;	4cc#;
I	4EE	8F#	4f#	8a#	4cc#
.	.	8G#	.	8b	.
=7	=7	=7	=7	=7	=7
Ib	8EE	8A#	8c#	8cc#	4ff#
IV	8AA	8B	8d#	8b	.
v	4BB	4c#	4e	8a#	4cc#
.	.	.	.	8g#	.
V7d/ii	8CC#	8c#	8d#	8f##	4dd#
viio7c	8DD#	8B	8e#	8g#	.
viib/ii	8EE#	8A#	8f##	8a#	8a#
ii	8FF#	8G#	8g#	8d#	8b
=8	=8	=8	=8	=8	=8
V7b/ii	4CC#	4F##	8a#	8d#	4cc#
.	.	.	8d#	8a#	.
ii	4FF#	4G#	4d#	8a#	4b
.	.	.	.	8g#	.
VI;	4CC#;	4D#;	4d#;	8g#	4a#;
.	.	.	.	8f##;	.
VI	4CC#	8d#	4d#	4f##	4a#
.	.	8c#	.	.	.
=9	=9	=9	=9	=9	=9
iib	8FF#	8B	8d#	8g#	8g#
Ib	8EE	8A#	8c#	8f#	8a#
viiob	4DD#	4G#	4B	8e#	4b
.	.	.	.	8d#	.
Ic	8EE	8A#	4f#	8c#	4a#
IV7	8AA	8B	.	8d#	.
V	4BB	4c#	8c#	4e#	4g#
.	.	.	8B	.	.
=10	=10	=10	=10	=10	=10
viioD7d/-VII	4CC#	8c#	4A	4f#	4d#
.	.	8B#	.	.	.
V	4BB	4c#	8G#	4c#	4e#
.	.	.	8B	.	.
I;	4EE;	4F#;	4A#;	4c#;	4f#;
==	==	==	==	==	==
*-	*-	*-	*-	*-	*-
!!chor2scor: -l 2 -s 0.6 -o %b.pmx
!!!YEC: Copyright 1994, David Huron
!!!YEC: Changes/Additions 2001 by Craig Stuart Sapp
!!!YEN: United States of America
!!!SMA: 371 Bach Chorales, edited by Ludwig Erk, C.F. Peters
!!!PDT: 1850, 1865
!!!ONB: Harmony and Root analysis done manually by Craig Sapp
